; generated by PrusaSlicer 2.2.0+ on 2020-11-08 at 14:47:16 UTC


;
;

;
;
; 

; external perimeters extrusion width = 0.45mm
; perimeters extrusion width = 0.45mm
; infill extrusion width = 0.45mm
; solid infill extrusion width = 0.45mm
; top infill extrusion width = 0.40mm
; first layer extrusion width = 0.42mm

M73 P0 R58
M201 X1250 Y1250 Z400 E5000 ; sets maximum accelerations, mm/sec^2
M203 X180 Y180 Z12 E80 ; sets maximum feedrates, mm/sec
M204 P1250 R1250 T1250 ; sets acceleration (P, T) and retract acceleration (R), mm/sec^2
M205 X8.00 Y8.00 Z2.00 E10.00 ; sets the jerk limits, mm/sec
M205 S0 T0 ; sets the minimum extruding and travel feed rate, mm/sec
M107 ; disable fan
G90 ; use absolute coordinates
M83 ; extruder relative mode
M104 S170 ; set extruder temp for bed leveling
M140 S85 ; set bed temp
M109 R170 ; wait for bed leveling temp
M190 S85 ; wait for bed temp
G28 ; home all without mesh bed level
G29 ; mesh bed leveling 
M104 S240 ; set extruder temp
G92 E0.0
G1 Y-2.0 X179 F2400
G1 Z3 F720
M109 S240 ; wait for extruder temp

; intro line
G1 X170 F1000
G1 Z0.2 F720
G1 X110.0 E8.0 F900
M73 P0 R57
G1 X40.0 E10.0 F700
G92 E0.0

M221 S95 ; set flow
G21 ; set units to millimeters
G90 ; use absolute coordinates
M83 ; use relative distances for extrusion
M900 K0.2 ; Filament gcode
;BEFORE_LAYER_CHANGE
G92 E0.0
;0.2


G1 Z0.200 F9000.000 ; move to next layer (0)
;AFTER_LAYER_CHANGE
;0.2
G1 E-3.20000 F2400.00000 ; retract
G1 Z0.400 F9000.000 ; lift Z
G1 X40.437 Y71.168 ; move to first skirt point
G1 Z0.200 ; restore layer Z
G1 E3.20000 F1500.00000 ; unretract
M204 S800 ; adjust acceleration
G1 F1800.000
G1 X40.824 Y70.427 E0.02621 ; skirt
G1 X41.348 Y69.836 E0.02476 ; skirt
G1 X42.127 Y69.314 E0.02939 ; skirt
G1 X42.850 Y69.058 E0.02406 ; skirt
G1 X52.044 Y66.974 E0.29559 ; skirt
G1 X127.894 Y66.973 E2.37821 ; skirt
G1 X128.423 Y67.033 E0.01668 ; skirt
G1 X137.636 Y69.207 E0.29681 ; skirt
G1 X138.296 Y69.556 E0.02341 ; skirt
G1 X138.889 Y70.070 E0.02460 ; skirt
G1 X139.416 Y70.839 E0.02923 ; skirt
G1 X139.657 Y71.495 E0.02193 ; skirt
G1 X139.711 Y71.998 E0.01584 ; skirt
G1 X139.703 Y109.753 E1.18380 ; skirt
G1 X139.560 Y110.631 E0.02787 ; skirt
G1 X139.170 Y111.464 E0.02885 ; skirt
G1 X138.543 Y112.166 E0.02951 ; skirt
G1 X137.840 Y112.632 E0.02644 ; skirt
G1 X137.044 Y112.891 E0.02625 ; skirt
G1 X136.409 Y112.955 E0.02000 ; skirt
G1 X43.566 Y112.955 E2.91105 ; skirt
G1 X42.647 Y112.817 E0.02912 ; skirt
G1 X42.024 Y112.556 E0.02119 ; skirt
G1 X41.352 Y112.067 E0.02606 ; skirt
G1 X40.705 Y111.247 E0.03273 ; skirt
G1 X40.409 Y110.523 E0.02454 ; skirt
G1 X40.295 Y109.676 E0.02680 ; skirt
G1 X40.291 Y71.918 E1.18387 ; skirt
G1 X40.426 Y71.227 E0.02207 ; skirt
M204 S1250 ; adjust acceleration
G1 E-2.24000 F2400.00000 ; retract
G1 F7200.000
G1 X40.824 Y70.427 E-0.28300 ; wipe and retract
G1 X41.348 Y69.836 E-0.25011 ; wipe and retract
G1 X42.127 Y69.314 E-0.29685 ; wipe and retract
G1 X42.371 Y69.227 E-0.08204 ; wipe and retract
G1 E-0.04800 F2400.00000 ; retract
G1 Z0.400 F9000.000 ; lift Z
G1 X110.980 Y105.208 ; move to first perimeter point
G1 Z0.200 ; restore layer Z
G1 E3.20000 F1500.00000 ; unretract
M204 S800 ; adjust acceleration
G1 F1800.000
G1 X111.039 Y105.119 E0.00333 ; perimeter
G1 X111.032 Y105.238 E0.00374 ; perimeter
M204 S1250 ; adjust acceleration
G1 E-2.24000 F2400.00000 ; retract
G1 F7200.000
G1 X111.039 Y105.119 E-0.03779 ; wipe and retract
G1 X111.032 Y105.238 E-0.03779 ; wipe and retract
G1 E-0.88443 F2400.00000 ; retract
G1 Z0.400 F9000.000 ; lift Z
G1 X114.820 Y105.431 ; move to first perimeter point
G1 Z0.200 ; restore layer Z
G1 E3.20000 F1500.00000 ; unretract
M204 S800 ; adjust acceleration
G1 F1800.000
G1 X115.296 Y104.950 E0.02124 ; perimeter
G1 X115.437 Y104.771 E0.00713 ; perimeter
G1 X115.406 Y105.199 E0.01347 ; perimeter
G1 X115.423 Y106.233 E0.03240 ; perimeter
G1 X115.274 Y106.013 E0.00832 ; perimeter
G1 X114.857 Y105.478 E0.02126 ; perimeter
M204 S1250 ; adjust acceleration
G1 E-2.24000 F2400.00000 ; retract
G1 F7200.000
G1 X115.296 Y104.950 E-0.21775 ; wipe and retract
G1 X115.437 Y104.771 E-0.07196 ; wipe and retract
G1 X115.406 Y105.199 E-0.13602 ; wipe and retract
G1 X115.423 Y106.233 E-0.32724 ; wipe and retract
G1 X115.274 Y106.013 E-0.08406 ; wipe and retract
G1 X115.128 Y105.826 E-0.07498 ; wipe and retract
G1 E-0.04800 F2400.00000 ; retract
G1 Z0.400 F9000.000 ; lift Z
G1 X123.236 Y105.277 ; move to first perimeter point
G1 Z0.200 ; restore layer Z
G1 E3.20000 F1500.00000 ; unretract
M204 S800 ; adjust acceleration
G1 F1800.000
G1 X123.231 Y105.049 E0.00713 ; perimeter
G1 X123.397 Y105.197 E0.00697 ; perimeter
G1 X123.242 Y105.327 E0.00634 ; perimeter
M204 S1250 ; adjust acceleration
G1 E-2.24000 F2400.00000 ; retract
G1 F7200.000
G1 X123.231 Y105.049 E-0.08798 ; wipe and retract
G1 X123.397 Y105.197 E-0.07039 ; wipe and retract
G1 X123.242 Y105.327 E-0.06399 ; wipe and retract
G1 E-0.73764 F2400.00000 ; retract
G1 Z0.400 F9000.000 ; lift Z
G1 X129.580 Y105.325 ; move to first perimeter point
G1 Z0.200 ; restore layer Z
G1 E3.20000 F1500.00000 ; unretract
M204 S800 ; adjust acceleration
G1 F1800.000
G1 X129.580 Y105.126 E0.00623 ; perimeter
G1 X129.930 Y105.084 E0.01105 ; perimeter
G1 X129.876 Y105.340 E0.00822 ; perimeter
G1 X129.855 Y105.720 E0.01191 ; perimeter
G1 X129.931 Y106.177 E0.01454 ; perimeter
G1 X129.580 Y106.260 E0.01129 ; perimeter
G1 X129.580 Y105.385 E0.02745 ; perimeter
M204 S1250 ; adjust acceleration
G1 E-2.24000 F2400.00000 ; retract
G1 F7200.000
G1 X129.580 Y105.126 E-0.08195 ; wipe and retract
G1 X129.930 Y105.084 E-0.11164 ; wipe and retract
G1 X129.876 Y105.340 E-0.08302 ; wipe and retract
G1 X129.855 Y105.720 E-0.12032 ; wipe and retract
G1 X129.931 Y106.177 E-0.14685 ; wipe and retract
G1 X129.580 Y106.260 E-0.11403 ; wipe and retract
G1 X129.580 Y105.458 E-0.25419 ; wipe and retract
G1 E-0.04800 F2400.00000 ; retract
G1 Z0.400 F9000.000 ; lift Z
G1 X111.357 Y92.507 ; move to first perimeter point
G1 Z0.200 ; restore layer Z
G1 E3.20000 F1500.00000 ; unretract
M204 S800 ; adjust acceleration
G1 F1800.000
G1 X95.643 Y92.507 E0.49271 ; perimeter
G1 X95.643 Y76.793 E0.49271 ; perimeter
G1 X111.357 Y76.793 E0.49271 ; perimeter
G1 X111.357 Y92.447 E0.49083 ; perimeter
M204 S1250 ; adjust acceleration
G1 X110.980 Y92.130 F9000.000 ; move to first perimeter point
M204 S800 ; adjust acceleration
G1 F1800.000
G1 X96.020 Y92.130 E0.46906 ; perimeter
G1 X96.020 Y77.170 E0.46906 ; perimeter
G1 X110.980 Y77.170 E0.46906 ; perimeter
G1 X110.980 Y92.070 E0.46718 ; perimeter
M204 S1250 ; adjust acceleration
G1 X111.084 Y92.516 F9000.000 ; move inwards before travel
G1 E-2.24000 F2400.00000 ; retract
G1 F7200.000
G1 X108.100 Y92.082 E-0.91200 ; wipe and retract
G1 E-0.04800 F2400.00000 ; retract
G1 Z0.400 F9000.000 ; lift Z
G1 X75.043 Y76.793 ; move to first perimeter point
G1 Z0.200 ; restore layer Z
G1 E3.20000 F1500.00000 ; unretract
M204 S800 ; adjust acceleration
G1 F1800.000
G1 X90.757 Y76.793 E0.49271 ; perimeter
G1 X90.757 Y92.507 E0.49271 ; perimeter
G1 X75.043 Y92.507 E0.49271 ; perimeter
G1 X75.043 Y76.853 E0.49083 ; perimeter
M204 S1250 ; adjust acceleration
G1 X75.420 Y77.170 F9000.000 ; move to first perimeter point
M204 S800 ; adjust acceleration
G1 F1800.000
G1 X90.380 Y77.170 E0.46906 ; perimeter
G1 X90.380 Y92.130 E0.46906 ; perimeter
G1 X75.420 Y92.130 E0.46906 ; perimeter
G1 X75.420 Y77.230 E0.46718 ; perimeter
M204 S1250 ; adjust acceleration
G1 X75.316 Y76.784 F9000.000 ; move inwards before travel
G1 E-2.24000 F2400.00000 ; retract
G1 F7200.000
G1 X78.300 Y77.218 E-0.91200 ; wipe and retract
G1 E-0.04800 F2400.00000 ; retract
G1 Z0.400 F9000.000 ; lift Z
G1 X61.613 Y91.637 ; move to first perimeter point
G1 Z0.200 ; restore layer Z
G1 E3.20000 F1500.00000 ; unretract
M204 S800 ; adjust acceleration
G1 F1800.000
G1 X62.143 Y92.283 E0.02619 ; perimeter
G1 X62.537 Y93.019 E0.02619 ; perimeter
G1 X62.779 Y93.819 E0.02619 ; perimeter
G1 X62.861 Y94.650 E0.02619 ; perimeter
G1 X62.779 Y95.481 E0.02619 ; perimeter
G1 X62.537 Y96.281 E0.02619 ; perimeter
G1 X62.143 Y97.017 E0.02619 ; perimeter
G1 X61.613 Y97.663 E0.02619 ; perimeter
G1 X60.967 Y98.193 E0.02619 ; perimeter
G1 X60.231 Y98.587 E0.02619 ; perimeter
G1 X59.431 Y98.829 E0.02619 ; perimeter
G1 X58.600 Y98.911 E0.02619 ; perimeter
G1 X57.769 Y98.829 E0.02619 ; perimeter
G1 X56.969 Y98.587 E0.02619 ; perimeter
G1 X56.233 Y98.193 E0.02619 ; perimeter
G1 X55.587 Y97.663 E0.02619 ; perimeter
G1 X55.057 Y97.017 E0.02619 ; perimeter
G1 X54.663 Y96.281 E0.02619 ; perimeter
G1 X54.421 Y95.481 E0.02619 ; perimeter
G1 X54.339 Y94.650 E0.02619 ; perimeter
G1 X54.421 Y93.819 E0.02619 ; perimeter
G1 X54.663 Y93.019 E0.02619 ; perimeter
G1 X55.057 Y92.283 E0.02619 ; perimeter
G1 X55.587 Y91.637 E0.02619 ; perimeter
G1 X56.233 Y91.107 E0.02619 ; perimeter
G1 X56.969 Y90.713 E0.02619 ; perimeter
G1 X57.769 Y90.471 E0.02619 ; perimeter
G1 X58.543 Y90.395 E0.02438 ; perimeter
G1 X59.427 Y90.470 E0.02784 ; perimeter
G1 X60.231 Y90.713 E0.02632 ; perimeter
G1 X60.967 Y91.107 E0.02619 ; perimeter
G1 X61.567 Y91.599 E0.02431 ; perimeter
M204 S1250 ; adjust acceleration
G1 X61.327 Y91.891 F9000.000 ; move to first perimeter point
M204 S800 ; adjust acceleration
G1 F1800.000
G1 X61.828 Y92.493 E0.02456 ; perimeter
G1 X62.186 Y93.164 E0.02386 ; perimeter
G1 X62.407 Y93.893 E0.02386 ; perimeter
G1 X62.482 Y94.650 E0.02386 ; perimeter
G1 X62.407 Y95.407 E0.02386 ; perimeter
G1 X62.186 Y96.136 E0.02386 ; perimeter
G1 X61.828 Y96.807 E0.02386 ; perimeter
G1 X61.345 Y97.395 E0.02386 ; perimeter
G1 X60.757 Y97.878 E0.02386 ; perimeter
G1 X60.086 Y98.236 E0.02386 ; perimeter
G1 X59.357 Y98.457 E0.02386 ; perimeter
G1 X58.600 Y98.532 E0.02386 ; perimeter
G1 X57.843 Y98.457 E0.02386 ; perimeter
G1 X57.114 Y98.236 E0.02386 ; perimeter
G1 X56.443 Y97.878 E0.02386 ; perimeter
G1 X55.855 Y97.395 E0.02386 ; perimeter
G1 X55.372 Y96.807 E0.02386 ; perimeter
G1 X55.014 Y96.136 E0.02386 ; perimeter
G1 X54.793 Y95.407 E0.02386 ; perimeter
G1 X54.718 Y94.650 E0.02386 ; perimeter
G1 X54.793 Y93.893 E0.02386 ; perimeter
G1 X55.014 Y93.164 E0.02386 ; perimeter
G1 X55.372 Y92.493 E0.02386 ; perimeter
G1 X55.855 Y91.905 E0.02386 ; perimeter
G1 X56.443 Y91.422 E0.02386 ; perimeter
G1 X57.114 Y91.064 E0.02386 ; perimeter
G1 X57.843 Y90.843 E0.02386 ; perimeter
G1 X58.545 Y90.773 E0.02213 ; perimeter
G1 X59.356 Y90.842 E0.02551 ; perimeter
G1 X60.086 Y91.064 E0.02391 ; perimeter
G1 X60.757 Y91.422 E0.02386 ; perimeter
G1 X61.281 Y91.852 E0.02126 ; perimeter
M204 S1250 ; adjust acceleration
G1 X61.713 Y91.785 F9000.000 ; move inwards before travel
G1 E-2.24000 F2400.00000 ; retract
G1 F7200.000
G1 X61.828 Y92.493 E-0.26677 ; wipe and retract
G1 X62.186 Y93.164 E-0.24098 ; wipe and retract
G1 X62.407 Y93.893 E-0.24098 ; wipe and retract
G1 X62.458 Y94.406 E-0.16327 ; wipe and retract
G1 E-0.04800 F2400.00000 ; retract
G1 Z0.400 F9000.000 ; lift Z
G1 X60.487 Y99.863 ; move to first perimeter point
G1 Z0.200 ; restore layer Z
G1 E3.20000 F1500.00000 ; unretract
M204 S800 ; adjust acceleration
G1 F1800.000
G1 X60.487 Y101.937 E0.06503 ; perimeter
G1 X56.713 Y101.937 E0.11834 ; perimeter
G1 X56.713 Y99.863 E0.06503 ; perimeter
G1 X60.427 Y99.863 E0.11645 ; perimeter
M204 S1250 ; adjust acceleration
G1 X60.110 Y100.240 F9000.000 ; move to first perimeter point
M204 S800 ; adjust acceleration
G1 F1800.000
G1 X60.110 Y101.560 E0.04139 ; perimeter
G1 X57.090 Y101.560 E0.09469 ; perimeter
G1 X57.090 Y100.240 E0.04139 ; perimeter
G1 X60.050 Y100.240 E0.09281 ; perimeter
M204 S1250 ; adjust acceleration
G1 X60.506 Y100.185 F9000.000 ; move inwards before travel
G1 E-2.24000 F2400.00000 ; retract
G1 F7200.000
G1 X60.110 Y101.560 E-0.41843 ; wipe and retract
G1 X58.551 Y101.560 E-0.49357 ; wipe and retract
G1 E-0.04800 F2400.00000 ; retract
G1 Z0.400 F9000.000 ; lift Z
G1 X103.327 Y101.501 ; move to first perimeter point
G1 Z0.200 ; restore layer Z
G1 E3.20000 F1500.00000 ; unretract
M204 S800 ; adjust acceleration
G1 F1800.000
G1 X103.310 Y103.953 E0.07689 ; perimeter
G1 X103.452 Y103.769 E0.00730 ; perimeter
G1 X103.724 Y103.534 E0.01126 ; perimeter
G1 X104.016 Y103.332 E0.01114 ; perimeter
G1 X104.346 Y103.179 E0.01142 ; perimeter
G1 X104.688 Y103.061 E0.01133 ; perimeter
G1 X105.075 Y103.001 E0.01229 ; perimeter
G1 X105.386 Y102.979 E0.00976 ; perimeter
G1 X105.732 Y103.003 E0.01089 ; perimeter
G1 X106.085 Y103.063 E0.01122 ; perimeter
G1 X106.425 Y103.185 E0.01135 ; perimeter
G1 X106.761 Y103.350 E0.01173 ; perimeter
G1 X107.054 Y103.580 E0.01169 ; perimeter
G1 X107.321 Y103.859 E0.01210 ; perimeter
G1 X107.410 Y104.025 E0.00589 ; perimeter
G1 X107.503 Y103.832 E0.00672 ; perimeter
G1 X107.790 Y103.491 E0.01397 ; perimeter
G1 X108.204 Y103.236 E0.01523 ; perimeter
G1 X108.620 Y103.071 E0.01405 ; perimeter
G1 X109.093 Y102.997 E0.01500 ; perimeter
G1 X109.654 Y102.988 E0.01759 ; perimeter
G1 X109.919 Y103.012 E0.00833 ; perimeter
G1 X110.405 Y103.110 E0.01555 ; perimeter
G1 X111.032 Y103.374 E0.02133 ; perimeter
G1 X110.987 Y101.503 E0.05868 ; perimeter
G1 X113.261 Y101.502 E0.07130 ; perimeter
G1 X113.255 Y103.274 E0.05556 ; perimeter
G1 X113.232 Y103.798 E0.01645 ; perimeter
G1 X113.201 Y104.029 E0.00730 ; perimeter
G1 X113.655 Y103.549 E0.02072 ; perimeter
G1 X114.265 Y103.002 E0.02567 ; perimeter
G1 X115.066 Y103.088 E0.02525 ; perimeter
G1 X115.713 Y103.280 E0.02117 ; perimeter
G1 X116.527 Y103.128 E0.02596 ; perimeter
G1 X117.278 Y103.301 E0.02415 ; perimeter
G1 X117.437 Y103.121 E0.00756 ; perimeter
G1 X117.814 Y103.070 E0.01192 ; perimeter
G1 X118.084 Y102.986 E0.00887 ; perimeter
G1 X118.721 Y103.035 E0.02003 ; perimeter
G1 X119.305 Y103.244 E0.01944 ; perimeter
G1 X119.496 Y103.381 E0.00737 ; perimeter
G1 X119.712 Y103.240 E0.00810 ; perimeter
G1 X120.304 Y103.041 E0.01958 ; perimeter
G1 X120.931 Y102.979 E0.01976 ; perimeter
G1 X121.352 Y103.013 E0.01325 ; perimeter
G1 X121.800 Y103.114 E0.01439 ; perimeter
G1 X122.214 Y103.326 E0.01458 ; perimeter
G1 X122.620 Y103.623 E0.01578 ; perimeter
G1 X122.796 Y103.874 E0.00961 ; perimeter
G1 X123.273 Y103.503 E0.01896 ; perimeter
G1 X123.513 Y103.349 E0.00894 ; perimeter
G1 X123.782 Y103.227 E0.00927 ; perimeter
G1 X124.275 Y103.076 E0.01615 ; perimeter
G1 X124.564 Y103.019 E0.00923 ; perimeter
G1 X124.869 Y102.990 E0.00961 ; perimeter
G1 X125.122 Y102.980 E0.00795 ; perimeter
G1 X125.542 Y103.006 E0.01318 ; perimeter
G1 X126.004 Y103.099 E0.01480 ; perimeter
G1 X126.446 Y103.319 E0.01545 ; perimeter
G1 X126.716 Y103.533 E0.01081 ; perimeter
G1 X126.672 Y103.114 E0.01321 ; perimeter
G1 X127.322 Y103.069 E0.02041 ; perimeter
G1 X127.318 Y102.188 E0.02764 ; perimeter
G1 X129.580 Y102.188 E0.07093 ; perimeter
G1 X129.580 Y103.025 E0.02626 ; perimeter
G1 X130.665 Y103.041 E0.03403 ; perimeter
G1 X130.647 Y103.735 E0.02176 ; perimeter
G1 X130.844 Y103.551 E0.00844 ; perimeter
G1 X131.139 Y103.338 E0.01142 ; perimeter
G1 X131.473 Y103.181 E0.01157 ; perimeter
G1 X131.816 Y103.062 E0.01139 ; perimeter
G1 X132.204 Y103.001 E0.01231 ; perimeter
G1 X132.514 Y102.979 E0.00976 ; perimeter
G1 X132.860 Y103.003 E0.01088 ; perimeter
G1 X133.211 Y103.062 E0.01116 ; perimeter
G1 X133.549 Y103.180 E0.01122 ; perimeter
G1 X133.873 Y103.333 E0.01123 ; perimeter
G1 X134.161 Y103.532 E0.01097 ; perimeter
G1 X134.429 Y103.763 E0.01108 ; perimeter
G1 X134.650 Y104.037 E0.01108 ; perimeter
G1 X134.839 Y104.331 E0.01096 ; perimeter
G1 X134.987 Y104.672 E0.01165 ; perimeter
G1 X135.095 Y105.023 E0.01151 ; perimeter
G1 X135.149 Y105.421 E0.01259 ; perimeter
G1 X135.065 Y106.186 E0.02414 ; perimeter
G1 X134.647 Y106.544 E0.01726 ; perimeter
G1 X135.140 Y106.926 E0.01958 ; perimeter
G1 X134.546 Y107.665 E0.02973 ; perimeter
G1 X134.333 Y107.882 E0.00952 ; perimeter
G1 X134.075 Y108.061 E0.00987 ; perimeter
G1 X133.794 Y108.205 E0.00989 ; perimeter
G1 X133.229 Y108.372 E0.01848 ; perimeter
G1 X132.656 Y108.421 E0.01800 ; perimeter
G1 X132.292 Y108.399 E0.01145 ; perimeter
