; generated by PrusaSlicer 2.2.0+ on 2020-11-08 at 15:06:39 UTC


;
;

;
;
; 

; external perimeters extrusion width = 0.45mm
; perimeters extrusion width = 0.45mm
; infill extrusion width = 0.45mm
; solid infill extrusion width = 0.45mm
; top infill extrusion width = 0.40mm
; first layer extrusion width = 0.42mm

M73 P0 R12
M201 X1250 Y1250 Z400 E5000 ; sets maximum accelerations, mm/sec^2
M203 X180 Y180 Z12 E80 ; sets maximum feedrates, mm/sec
M204 P1250 R1250 T1250 ; sets acceleration (P, T) and retract acceleration (R), mm/sec^2
M205 X8.00 Y8.00 Z2.00 E10.00 ; sets the jerk limits, mm/sec
M205 S0 T0 ; sets the minimum extruding and travel feed rate, mm/sec
M107 ; disable fan
G90 ; use absolute coordinates
M83 ; extruder relative mode
M104 S170 ; set extruder temp for bed leveling
M140 S85 ; set bed temp
M109 R170 ; wait for bed leveling temp
M190 S85 ; wait for bed temp
G28 ; home all without mesh bed level
G29 ; mesh bed leveling 
M104 S240 ; set extruder temp
G92 E0.0
G1 Y-2.0 X179 F2400
G1 Z3 F720
M109 S240 ; wait for extruder temp

; intro line
G1 X170 F1000
G1 Z0.2 F720
G1 X110.0 E8.0 F900
M73 P1 R11
G1 X40.0 E10.0 F700
G92 E0.0

M221 S95 ; set flow
G21 ; set units to millimeters
G90 ; use absolute coordinates
M83 ; use relative distances for extrusion
M900 K0.2 ; Filament gcode
;BEFORE_LAYER_CHANGE
G92 E0.0
;0.2


G1 Z0.200 F9000.000 ; move to next layer (0)
;AFTER_LAYER_CHANGE
;0.2
G1 E-3.20000 F2400.00000 ; retract
G1 Z0.400 F9000.000 ; lift Z
G1 X33.486 Y62.102 ; move to first skirt point
G1 Z0.200 ; restore layer Z
G1 E3.20000 F1500.00000 ; unretract
M204 S800 ; adjust acceleration
G1 F1800.000
G1 X33.500 Y61.449 E0.02048 ; skirt
G1 X33.691 Y60.825 E0.02048 ; skirt
G1 X34.042 Y60.278 E0.02036 ; skirt
G1 X34.531 Y59.846 E0.02048 ; skirt
G1 X89.397 Y24.871 E2.04006 ; skirt
G1 X91.232 Y23.768 E0.06712 ; skirt
G1 X93.218 Y22.711 E0.07056 ; skirt
G1 X95.265 Y21.781 E0.07050 ; skirt
G1 X97.054 Y21.113 E0.05987 ; skirt
G1 X99.068 Y20.536 E0.06568 ; skirt
G1 X100.761 Y20.216 E0.05404 ; skirt
G1 X102.988 Y20.030 E0.07008 ; skirt
G1 X104.664 Y20.097 E0.05260 ; skirt
G1 X105.557 Y20.212 E0.02822 ; skirt
G1 X107.420 Y20.643 E0.05994 ; skirt
G1 X108.333 Y20.959 E0.03030 ; skirt
G1 X109.799 Y21.625 E0.05049 ; skirt
G1 X111.552 Y22.704 E0.06454 ; skirt
G1 X112.340 Y23.306 E0.03111 ; skirt
G1 X113.617 Y24.453 E0.05379 ; skirt
G1 X115.168 Y26.169 E0.07254 ; skirt
G1 X116.926 Y28.623 E0.09465 ; skirt
G1 X118.635 Y31.649 E0.10896 ; skirt
G1 X120.145 Y34.970 E0.11438 ; skirt
G1 X121.112 Y37.485 E0.08450 ; skirt
G1 X122.809 Y42.803 E0.17503 ; skirt
G1 X123.703 Y46.189 E0.10978 ; skirt
G1 X124.975 Y51.873 E0.18262 ; skirt
G1 X125.682 Y55.609 E0.11923 ; skirt
G1 X126.756 Y62.352 E0.21410 ; skirt
G1 X127.643 Y69.370 E0.22179 ; skirt
G1 X128.424 Y77.382 E0.25240 ; skirt
G1 X128.957 Y84.935 E0.23739 ; skirt
G1 X129.312 Y92.687 E0.24332 ; skirt
G1 X129.476 Y100.532 E0.24605 ; skirt
G1 X129.442 Y107.595 E0.22144 ; skirt
G1 X129.206 Y114.750 E0.22448 ; skirt
G1 X128.781 Y121.196 E0.20252 ; skirt
G1 X128.148 Y127.163 E0.18815 ; skirt
G1 X127.322 Y132.385 E0.16577 ; skirt
G1 X126.512 Y136.061 E0.11802 ; skirt
G1 X125.589 Y139.178 E0.10192 ; skirt
G1 X124.478 Y141.927 E0.09298 ; skirt
G1 X123.188 Y144.175 E0.08124 ; skirt
G1 X122.245 Y145.358 E0.04746 ; skirt
G1 X121.611 Y145.987 E0.02801 ; skirt
G1 X120.858 Y146.581 E0.03006 ; skirt
G1 X119.753 Y147.218 E0.03999 ; skirt
G1 X118.905 Y147.538 E0.02843 ; skirt
G1 X117.972 Y147.740 E0.02992 ; skirt
G1 X116.538 Y147.786 E0.04500 ; skirt
G1 X114.962 Y147.485 E0.05030 ; skirt
G1 X113.400 Y146.849 E0.05289 ; skirt
G1 X111.444 Y145.612 E0.07255 ; skirt
G1 X43.573 Y93.330 E2.68621 ; skirt
G1 X43.232 Y92.892 E0.01740 ; skirt
G1 X43.004 Y92.391 E0.01728 ; skirt
G1 X33.504 Y62.159 E0.99358 ; skirt
M204 S1250 ; adjust acceleration
G1 E-2.24000 F2400.00000 ; retract
G1 F7200.000
G1 X33.500 Y61.449 E-0.22489 ; wipe and retract
G1 X33.691 Y60.825 E-0.20681 ; wipe and retract
G1 X34.042 Y60.278 E-0.20561 ; wipe and retract
G1 X34.531 Y59.846 E-0.20681 ; wipe and retract
G1 X34.712 Y59.730 E-0.06788 ; wipe and retract
G1 E-0.04800 F2400.00000 ; retract
G1 Z0.400 F9000.000 ; lift Z
G1 X37.284 Y62.348 ; move to first perimeter point
G1 Z0.200 ; restore layer Z
G1 E3.20000 F1500.00000 ; unretract
M204 S800 ; adjust acceleration
G1 F1800.000
G1 X91.077 Y28.052 E2.00028 ; perimeter
G1 X92.484 Y27.190 E0.05170 ; perimeter
G1 X93.860 Y26.419 E0.04946 ; perimeter
G1 X95.199 Y25.741 E0.04708 ; perimeter
G1 X96.502 Y25.157 E0.04477 ; perimeter
G1 X97.767 Y24.665 E0.04256 ; perimeter
G1 X98.995 Y24.267 E0.04045 ; perimeter
G1 X100.183 Y23.963 E0.03848 ; perimeter
G1 X101.331 Y23.755 E0.03657 ; perimeter
G1 X102.323 Y23.647 E0.03130 ; perimeter
G1 X103.287 Y23.613 E0.03022 ; perimeter
G1 X104.178 Y23.650 E0.02797 ; perimeter
G1 X105.064 Y23.760 E0.02801 ; perimeter
G1 X105.938 Y23.946 E0.02800 ; perimeter
G1 X106.776 Y24.205 E0.02752 ; perimeter
G1 X107.620 Y24.549 E0.02858 ; perimeter
G1 X108.424 Y24.960 E0.02829 ; perimeter
G1 X109.220 Y25.454 E0.02939 ; perimeter
G1 X110.001 Y26.032 E0.03047 ; perimeter
G1 X110.765 Y26.692 E0.03166 ; perimeter
G1 X111.512 Y27.435 E0.03303 ; perimeter
G1 X112.242 Y28.262 E0.03458 ; perimeter
G1 X112.955 Y29.174 E0.03629 ; perimeter
G1 X113.635 Y30.147 E0.03724 ; perimeter
G1 X114.332 Y31.258 E0.04112 ; perimeter
G1 X115.097 Y32.624 E0.04908 ; perimeter
G1 X115.837 Y34.102 E0.05182 ; perimeter
G1 X116.550 Y35.688 E0.05452 ; perimeter
G1 X117.238 Y37.380 E0.05728 ; perimeter
G1 X117.901 Y39.176 E0.06002 ; perimeter
G1 X118.522 Y41.025 E0.06115 ; perimeter
G1 X119.134 Y43.018 E0.06539 ; perimeter
G1 X119.732 Y45.153 E0.06952 ; perimeter
G1 X120.423 Y47.885 E0.08835 ; perimeter
G1 X121.072 Y50.745 E0.09194 ; perimeter
G1 X121.680 Y53.719 E0.09520 ; perimeter
G1 X122.245 Y56.799 E0.09817 ; perimeter
G1 X122.771 Y59.976 E0.10098 ; perimeter
G1 X123.255 Y63.243 E0.10353 ; perimeter
G1 X123.699 Y66.587 E0.10578 ; perimeter
G1 X124.103 Y70.000 E0.10776 ; perimeter
G1 X124.578 Y74.640 E0.14625 ; perimeter
G1 X124.980 Y79.350 E0.14823 ; perimeter
G1 X125.317 Y84.220 E0.15305 ; perimeter
G1 X125.567 Y88.859 E0.14567 ; perimeter
G1 X125.750 Y93.598 E0.14869 ; perimeter
G1 X125.859 Y98.287 E0.14705 ; perimeter
G1 X125.894 Y102.895 E0.14449 ; perimeter
G1 X125.854 Y107.393 E0.14104 ; perimeter
G1 X125.747 Y111.520 E0.12945 ; perimeter
G1 X125.575 Y115.394 E0.12156 ; perimeter
G1 X125.326 Y119.300 E0.12272 ; perimeter
G1 X125.018 Y122.859 E0.11203 ; perimeter
G1 X124.832 Y124.632 E0.05587 ; perimeter
G1 X124.634 Y126.301 E0.05270 ; perimeter
G1 X124.194 Y129.406 E0.09834 ; perimeter
G1 X123.939 Y130.925 E0.04828 ; perimeter
G1 X123.674 Y132.333 E0.04495 ; perimeter
G1 X123.399 Y133.639 E0.04182 ; perimeter
G1 X123.094 Y134.936 E0.04181 ; perimeter
G1 X122.766 Y136.168 E0.03995 ; perimeter
G1 X122.420 Y137.316 E0.03759 ; perimeter
G1 X122.058 Y138.377 E0.03516 ; perimeter
G1 X121.696 Y139.322 E0.03174 ; perimeter
G1 X121.299 Y140.235 E0.03121 ; perimeter
G1 X120.916 Y141.006 E0.02699 ; perimeter
G1 X120.501 Y141.728 E0.02610 ; perimeter
G1 X120.090 Y142.337 E0.02304 ; perimeter
G1 X119.581 Y142.955 E0.02512 ; perimeter
G1 X119.070 Y143.441 E0.02210 ; perimeter
G1 X118.557 Y143.803 E0.01970 ; perimeter
G1 X118.052 Y144.044 E0.01753 ; perimeter
G1 X117.586 Y144.176 E0.01517 ; perimeter
G1 X117.097 Y144.226 E0.01540 ; perimeter
G1 X116.583 Y144.186 E0.01618 ; perimeter
G1 X116.035 Y144.061 E0.01762 ; perimeter
G1 X115.590 Y143.906 E0.01478 ; perimeter
G1 X115.122 Y143.695 E0.01608 ; perimeter
G1 X114.631 Y143.427 E0.01756 ; perimeter
G1 X114.114 Y143.101 E0.01914 ; perimeter
G1 X113.575 Y142.715 E0.02081 ; perimeter
G1 X113.013 Y142.269 E0.02250 ; perimeter
G1 X112.433 Y141.761 E0.02418 ; perimeter
G1 X111.683 Y141.060 E0.03218 ; perimeter
G1 X46.307 Y90.931 E2.58304 ; perimeter
G1 X37.302 Y62.405 E0.93792 ; perimeter
M204 S1250 ; adjust acceleration
G1 X37.731 Y62.510 F9000.000 ; move to first perimeter point
M204 S800 ; adjust acceleration
G1 F1800.000
G1 X91.277 Y28.371 E1.99110 ; perimeter
G1 X92.674 Y27.516 E0.05136 ; perimeter
G1 X94.037 Y26.752 E0.04898 ; perimeter
G1 X95.362 Y26.082 E0.04655 ; perimeter
G1 X96.648 Y25.505 E0.04419 ; perimeter
G1 X97.894 Y25.021 E0.04191 ; perimeter
G1 X99.099 Y24.630 E0.03974 ; perimeter
G1 X100.264 Y24.332 E0.03768 ; perimeter
G1 X101.385 Y24.128 E0.03573 ; perimeter
G1 X102.351 Y24.024 E0.03046 ; perimeter
G1 X103.285 Y23.991 E0.02932 ; perimeter
G1 X104.147 Y24.026 E0.02704 ; perimeter
G1 X105.002 Y24.132 E0.02700 ; perimeter
G1 X105.842 Y24.311 E0.02696 ; perimeter
G1 X106.649 Y24.560 E0.02647 ; perimeter
G1 X107.463 Y24.892 E0.02755 ; perimeter
G1 X108.238 Y25.288 E0.02729 ; perimeter
G1 X109.008 Y25.766 E0.02842 ; perimeter
G1 X109.766 Y26.327 E0.02954 ; perimeter
G1 X110.509 Y26.969 E0.03080 ; perimeter
G1 X111.238 Y27.694 E0.03223 ; perimeter
G1 X111.952 Y28.503 E0.03384 ; perimeter
G1 X112.652 Y29.398 E0.03562 ; perimeter
G1 X113.321 Y30.356 E0.03663 ; perimeter
G1 X114.008 Y31.451 E0.04054 ; perimeter
G1 X114.764 Y32.800 E0.04851 ; perimeter
G1 X115.496 Y34.264 E0.05130 ; perimeter
G1 X116.203 Y35.836 E0.05407 ; perimeter
G1 X116.886 Y37.517 E0.05687 ; perimeter
G1 X117.545 Y39.301 E0.05965 ; perimeter
G1 X118.163 Y41.140 E0.06082 ; perimeter
G1 X118.772 Y43.125 E0.06508 ; perimeter
G1 X119.368 Y45.251 E0.06922 ; perimeter
G1 X120.056 Y47.973 E0.08805 ; perimeter
G1 X120.704 Y50.824 E0.09167 ; perimeter
G1 X121.309 Y53.791 E0.09495 ; perimeter
G1 X121.874 Y56.864 E0.09794 ; perimeter
G1 X122.398 Y60.035 E0.10078 ; perimeter
G1 X122.882 Y63.295 E0.10335 ; perimeter
G1 X123.325 Y66.634 E0.10560 ; perimeter
G1 X123.728 Y70.041 E0.10758 ; perimeter
G1 X124.202 Y74.675 E0.14605 ; perimeter
G1 X124.604 Y79.379 E0.14803 ; perimeter
G1 X124.940 Y84.243 E0.15287 ; perimeter
G1 X125.190 Y88.877 E0.14549 ; perimeter
G1 X125.373 Y93.610 E0.14851 ; perimeter
G1 X125.482 Y98.292 E0.14686 ; perimeter
G1 X125.517 Y102.895 E0.14430 ; perimeter
G1 X125.477 Y107.386 E0.14084 ; perimeter
G1 X125.370 Y111.507 E0.12924 ; perimeter
G1 X125.199 Y115.373 E0.12134 ; perimeter
G1 X124.950 Y119.271 E0.12247 ; perimeter
G1 X124.643 Y122.823 E0.11179 ; perimeter
G1 X124.458 Y124.590 E0.05568 ; perimeter
G1 X124.260 Y126.252 E0.05249 ; perimeter
G1 X123.821 Y129.348 E0.09805 ; perimeter
G1 X123.568 Y130.859 E0.04802 ; perimeter
G1 X123.304 Y132.260 E0.04470 ; perimeter
G1 X123.031 Y133.556 E0.04155 ; perimeter
G1 X122.728 Y134.845 E0.04149 ; perimeter
G1 X122.403 Y136.065 E0.03959 ; perimeter
G1 X122.061 Y137.200 E0.03719 ; perimeter
G1 X121.704 Y138.249 E0.03472 ; perimeter
G1 X121.347 Y139.179 E0.03125 ; perimeter
G1 X120.957 Y140.076 E0.03065 ; perimeter
G1 X120.583 Y140.828 E0.02634 ; perimeter
G1 X120.181 Y141.528 E0.02532 ; perimeter
G1 X119.788 Y142.111 E0.02204 ; perimeter
G1 X119.305 Y142.698 E0.02384 ; perimeter
G1 X118.830 Y143.149 E0.02052 ; perimeter
G1 X118.365 Y143.477 E0.01783 ; perimeter
G1 X117.918 Y143.690 E0.01553 ; perimeter
G1 X117.515 Y143.804 E0.01314 ; perimeter
G1 X117.093 Y143.847 E0.01332 ; perimeter
G1 X116.640 Y143.812 E0.01425 ; perimeter
G1 X116.139 Y143.698 E0.01609 ; perimeter
G1 X115.730 Y143.555 E0.01360 ; perimeter
G1 X115.290 Y143.357 E0.01512 ; perimeter
G1 X114.822 Y143.102 E0.01673 ; perimeter
G1 X114.325 Y142.788 E0.01842 ; perimeter
G1 X113.802 Y142.414 E0.02016 ; perimeter
G1 X113.254 Y141.979 E0.02192 ; perimeter
G1 X112.686 Y141.481 E0.02370 ; perimeter
G1 X111.927 Y140.772 E0.03257 ; perimeter
G1 X46.631 Y90.704 E2.57989 ; perimeter
G1 X37.749 Y62.567 E0.92512 ; perimeter
M204 S1250 ; adjust acceleration
G1 X37.495 Y62.187 F9000.000 ; move inwards before travel
G1 E-2.24000 F2400.00000 ; retract
G1 F7200.000
G1 X40.176 Y61.017 E-0.91200 ; wipe and retract
G1 E-0.04800 F2400.00000 ; retract
G1 Z0.400 F9000.000 ; lift Z
G1 X36.780 Y62.164 ; move to first perimeter point
G1 Z0.200 ; restore layer Z
G1 E3.20000 F1500.00000 ; unretract
M204 S800 ; adjust acceleration
G1 F1800.000
G1 X90.835 Y27.701 E2.01004 ; perimeter
G1 X92.762 Y26.538 E0.07055 ; perimeter
G1 X94.641 Y25.538 E0.06674 ; perimeter
G1 X96.426 Y24.725 E0.06152 ; perimeter
G1 X98.185 Y24.071 E0.05883 ; perimeter
G1 X99.835 Y23.606 E0.05376 ; perimeter
G1 X101.425 Y23.314 E0.05068 ; perimeter
G1 X102.210 Y23.231 E0.02473 ; perimeter
G1 X102.948 Y23.195 E0.02317 ; perimeter
G1 X103.688 Y23.201 E0.02323 ; perimeter
G1 X104.414 Y23.252 E0.02282 ; perimeter
G1 X105.125 Y23.347 E0.02246 ; perimeter
G1 X105.819 Y23.487 E0.02221 ; perimeter
G1 X106.482 Y23.665 E0.02153 ; perimeter
G1 X107.150 Y23.894 E0.02214 ; perimeter
G1 X107.805 Y24.168 E0.02228 ; perimeter
G1 X108.448 Y24.488 E0.02252 ; perimeter
G1 X109.064 Y24.845 E0.02231 ; perimeter
G1 X109.685 Y25.259 E0.02339 ; perimeter
G1 X110.295 Y25.722 E0.02402 ; perimeter
G1 X110.894 Y26.232 E0.02467 ; perimeter
G1 X111.483 Y26.792 E0.02547 ; perimeter
G1 X112.047 Y27.386 E0.02570 ; perimeter
G1 X112.615 Y28.044 E0.02725 ; perimeter
G1 X113.185 Y28.769 E0.02893 ; perimeter
G1 X113.731 Y29.529 E0.02933 ; perimeter
G1 X114.254 Y30.318 E0.02969 ; perimeter
G1 X114.765 Y31.155 E0.03073 ; perimeter
G1 X115.292 Y32.084 E0.03350 ; perimeter
G1 X115.781 Y33.016 E0.03300 ; perimeter
G1 X116.281 Y34.041 E0.03575 ; perimeter
G1 X117.228 Y36.197 E0.07385 ; perimeter
G1 X118.127 Y38.534 E0.07851 ; perimeter
G1 X118.979 Y41.049 E0.08324 ; perimeter
G1 X119.800 Y43.795 E0.08986 ; perimeter
G1 X120.541 Y46.577 E0.09027 ; perimeter
G1 X121.251 Y49.570 E0.09646 ; perimeter
G1 X121.928 Y52.768 E0.10249 ; perimeter
G1 X122.543 Y56.027 E0.10399 ; perimeter
G1 X123.100 Y59.332 E0.10509 ; perimeter
G1 X123.634 Y62.873 E0.11228 ; perimeter
G1 X124.117 Y66.500 E0.11473 ; perimeter
G1 X124.538 Y70.068 E0.11264 ; perimeter
G1 X124.928 Y73.832 E0.11866 ; perimeter
G1 X125.271 Y77.646 E0.12007 ; perimeter
G1 X125.565 Y81.493 E0.12097 ; perimeter
G1 X125.803 Y85.215 E0.11694 ; perimeter
G1 X126.003 Y89.081 E0.12138 ; perimeter
G1 X126.149 Y92.791 E0.11641 ; perimeter
G1 X126.254 Y96.614 E0.11991 ; perimeter
G1 X126.310 Y100.391 E0.11845 ; perimeter
G1 X126.317 Y104.038 E0.11436 ; perimeter
G1 X126.276 Y107.612 E0.11205 ; perimeter
G1 X126.186 Y111.160 E0.11129 ; perimeter
G1 X126.048 Y114.538 E0.10602 ; perimeter
G1 X125.863 Y117.799 E0.10240 ; perimeter
G1 X125.628 Y120.927 E0.09836 ; perimeter
G1 X125.345 Y123.910 E0.09395 ; perimeter
G1 X125.006 Y126.789 E0.09087 ; perimeter
G1 X124.623 Y129.444 E0.08411 ; perimeter
G1 X124.190 Y131.921 E0.07884 ; perimeter
G1 X123.950 Y133.111 E0.03807 ; perimeter
G1 X123.697 Y134.248 E0.03653 ; perimeter
G1 X123.177 Y136.282 E0.06582 ; perimeter
G1 X122.887 Y137.262 E0.03203 ; perimeter
G1 X122.600 Y138.142 E0.02903 ; perimeter
G1 X122.285 Y139.011 E0.02901 ; perimeter
G1 X121.966 Y139.801 E0.02669 ; perimeter
G1 X121.646 Y140.514 E0.02451 ; perimeter
G1 X121.307 Y141.187 E0.02363 ; perimeter
G1 X120.958 Y141.802 E0.02216 ; perimeter
G1 X120.611 Y142.338 E0.02002 ; perimeter
G1 X120.237 Y142.842 E0.01968 ; perimeter
G1 X119.877 Y143.259 E0.01728 ; perimeter
G1 X119.515 Y143.616 E0.01594 ; perimeter
G1 X119.135 Y143.926 E0.01537 ; perimeter
G1 X118.763 Y144.171 E0.01397 ; perimeter
G1 X118.387 Y144.363 E0.01325 ; perimeter
G1 X118.006 Y144.503 E0.01272 ; perimeter
G1 X117.618 Y144.594 E0.01250 ; perimeter
G1 X117.218 Y144.637 E0.01260 ; perimeter
G1 X116.803 Y144.632 E0.01302 ; perimeter
G1 X116.369 Y144.576 E0.01372 ; perimeter
G1 X115.918 Y144.468 E0.01454 ; perimeter
G1 X115.432 Y144.301 E0.01612 ; perimeter
G1 X114.942 Y144.084 E0.01678 ; perimeter
G1 X114.417 Y143.802 E0.01870 ; perimeter
G1 X113.869 Y143.457 E0.02029 ; perimeter
G1 X113.322 Y143.065 E0.02113 ; perimeter
G1 X112.724 Y142.586 E0.02401 ; perimeter
G1 X112.142 Y142.073 E0.02433 ; perimeter
G1 X111.486 Y141.445 E0.02846 ; perimeter
G1 X45.942 Y91.187 E2.58971 ; perimeter
G1 X36.798 Y62.222 E0.95238 ; perimeter
M204 S1250 ; adjust acceleration
G1 X36.333 Y62.002 F9000.000 ; move to first perimeter point
