; generated by PrusaSlicer 2.2.0+ on 2020-11-08 at 16:23:59 UTC


;
;

;
;
; 

; external perimeters extrusion width = 0.45mm
; perimeters extrusion width = 0.45mm
; infill extrusion width = 0.45mm
; solid infill extrusion width = 0.45mm
; top infill extrusion width = 0.40mm
; first layer extrusion width = 0.42mm

M73 P0 R12
M201 X1250 Y1250 Z400 E5000 ; sets maximum accelerations, mm/sec^2
M203 X180 Y180 Z12 E80 ; sets maximum feedrates, mm/sec
M204 P1250 R1250 T1250 ; sets acceleration (P, T) and retract acceleration (R), mm/sec^2
M205 X8.00 Y8.00 Z2.00 E10.00 ; sets the jerk limits, mm/sec
M205 S0 T0 ; sets the minimum extruding and travel feed rate, mm/sec
M107 ; disable fan
G90 ; use absolute coordinates
M83 ; extruder relative mode
M104 S170 ; set extruder temp for bed leveling
M140 S85 ; set bed temp
M109 R170 ; wait for bed leveling temp
M190 S85 ; wait for bed temp
G28 ; home all without mesh bed level
G29 ; mesh bed leveling 
M104 S240 ; set extruder temp
G92 E0.0
G1 Y-2.0 X179 F2400
G1 Z3 F720
M109 S240 ; wait for extruder temp

; intro line
G1 X170 F1000
G1 Z0.2 F720
G1 X110.0 E8.0 F900
M73 P1 R11
G1 X40.0 E10.0 F700
G92 E0.0

M221 S95 ; set flow
G21 ; set units to millimeters
G90 ; use absolute coordinates
M83 ; use relative distances for extrusion
M900 K0.2 ; Filament gcode
;BEFORE_LAYER_CHANGE
G92 E0.0
;0.2


G1 Z0.200 F9000.000 ; move to next layer (0)
;AFTER_LAYER_CHANGE
;0.2
G1 E-3.20000 F2400.00000 ; retract
G1 Z0.400 F9000.000 ; lift Z
G1 X146.514 Y62.102 ; move to first skirt point
G1 Z0.200 ; restore layer Z
G1 E3.20000 F1500.00000 ; unretract
M204 S800 ; adjust acceleration
G1 F1800.000
G1 X136.996 Y92.391 E0.99545 ; skirt
G1 X136.766 Y92.895 E0.01740 ; skirt
G1 X136.427 Y93.330 E0.01728 ; skirt
G1 X68.554 Y145.613 E2.68629 ; skirt
G1 X66.602 Y146.848 E0.07241 ; skirt
G1 X65.037 Y147.485 E0.05298 ; skirt
G1 X63.447 Y147.787 E0.05076 ; skirt
G1 X62.024 Y147.739 E0.04462 ; skirt
G1 X61.095 Y147.539 E0.02981 ; skirt
G1 X60.248 Y147.219 E0.02840 ; skirt
G1 X59.140 Y146.579 E0.04010 ; skirt
G1 X58.389 Y145.987 E0.02998 ; skirt
G1 X57.755 Y145.359 E0.02799 ; skirt
G1 X56.811 Y144.174 E0.04750 ; skirt
G1 X55.523 Y141.929 E0.08115 ; skirt
G1 X54.410 Y139.176 E0.09310 ; skirt
G1 X53.488 Y136.061 E0.10185 ; skirt
G1 X52.678 Y132.385 E0.11803 ; skirt
G1 X51.852 Y127.162 E0.16579 ; skirt
G1 X51.219 Y121.196 E0.18813 ; skirt
G1 X50.794 Y114.752 E0.20247 ; skirt
G1 X50.558 Y107.593 E0.22460 ; skirt
G1 X50.524 Y100.533 E0.22135 ; skirt
G1 X50.688 Y92.687 E0.24608 ; skirt
G1 X51.043 Y84.935 E0.24329 ; skirt
G1 X51.576 Y77.382 E0.23742 ; skirt
G1 X52.357 Y69.370 E0.25239 ; skirt
G1 X53.245 Y62.352 E0.22179 ; skirt
G1 X54.318 Y55.609 E0.21409 ; skirt
G1 X55.025 Y51.872 E0.11926 ; skirt
G1 X56.297 Y46.190 E0.18255 ; skirt
G1 X57.191 Y42.804 E0.10981 ; skirt
G1 X58.884 Y37.494 E0.17475 ; skirt
G1 X59.855 Y34.969 E0.08482 ; skirt
G1 X61.366 Y31.648 E0.11439 ; skirt
G1 X63.074 Y28.622 E0.10896 ; skirt
G1 X64.833 Y26.168 E0.09466 ; skirt
G1 X66.383 Y24.453 E0.07246 ; skirt
G1 X68.443 Y22.708 E0.08466 ; skirt
G1 X70.200 Y21.625 E0.06472 ; skirt
G1 X71.664 Y20.960 E0.05042 ; skirt
G1 X72.583 Y20.642 E0.03048 ; skirt
G1 X74.448 Y20.212 E0.06003 ; skirt
G1 X76.090 Y20.045 E0.05173 ; skirt
G1 X77.049 Y20.030 E0.03010 ; skirt
G1 X79.243 Y20.216 E0.06902 ; skirt
G1 X80.931 Y20.535 E0.05387 ; skirt
G1 X82.951 Y21.115 E0.06588 ; skirt
G1 X84.736 Y21.781 E0.05974 ; skirt
G1 X86.782 Y22.711 E0.07048 ; skirt
G1 X88.768 Y23.768 E0.07054 ; skirt
G1 X90.604 Y24.871 E0.06717 ; skirt
G1 X145.469 Y59.846 E2.04004 ; skirt
G1 X145.958 Y60.279 E0.02048 ; skirt
G1 X146.311 Y60.828 E0.02048 ; skirt
G1 X146.500 Y61.453 E0.02048 ; skirt
G1 X146.512 Y62.042 E0.01848 ; skirt
M204 S1250 ; adjust acceleration
G1 E-2.24000 F2400.00000 ; retract
G1 F7200.000
G1 X145.651 Y64.791 E-0.91200 ; wipe and retract
G1 E-0.04800 F2400.00000 ; retract
G1 Z0.400 F9000.000 ; lift Z
G1 X142.716 Y62.348 ; move to first perimeter point
G1 Z0.200 ; restore layer Z
G1 E3.20000 F1500.00000 ; unretract
M204 S800 ; adjust acceleration
G1 F1800.000
G1 X133.693 Y90.931 E0.93980 ; perimeter
G1 X68.317 Y141.060 E2.58304 ; perimeter
G1 X67.567 Y141.761 E0.03218 ; perimeter
G1 X66.987 Y142.269 E0.02418 ; perimeter
G1 X66.425 Y142.715 E0.02250 ; perimeter
G1 X65.886 Y143.101 E0.02081 ; perimeter
G1 X65.369 Y143.427 E0.01914 ; perimeter
G1 X64.878 Y143.695 E0.01756 ; perimeter
G1 X64.410 Y143.906 E0.01608 ; perimeter
G1 X63.965 Y144.061 E0.01478 ; perimeter
G1 X63.417 Y144.186 E0.01762 ; perimeter
G1 X62.903 Y144.226 E0.01618 ; perimeter
G1 X62.414 Y144.176 E0.01540 ; perimeter
G1 X61.948 Y144.044 E0.01517 ; perimeter
G1 X61.443 Y143.803 E0.01753 ; perimeter
G1 X60.930 Y143.441 E0.01970 ; perimeter
G1 X60.419 Y142.955 E0.02210 ; perimeter
G1 X59.910 Y142.337 E0.02512 ; perimeter
G1 X59.498 Y141.728 E0.02304 ; perimeter
G1 X59.084 Y141.006 E0.02610 ; perimeter
G1 X58.701 Y140.235 E0.02699 ; perimeter
G1 X58.304 Y139.322 E0.03121 ; perimeter
G1 X57.942 Y138.377 E0.03174 ; perimeter
G1 X57.580 Y137.316 E0.03516 ; perimeter
G1 X57.234 Y136.168 E0.03759 ; perimeter
G1 X56.906 Y134.936 E0.03995 ; perimeter
G1 X56.601 Y133.639 E0.04181 ; perimeter
G1 X56.326 Y132.333 E0.04182 ; perimeter
G1 X56.061 Y130.925 E0.04495 ; perimeter
G1 X55.806 Y129.406 E0.04828 ; perimeter
G1 X55.366 Y126.301 E0.09834 ; perimeter
G1 X55.168 Y124.631 E0.05270 ; perimeter
G1 X54.982 Y122.859 E0.05587 ; perimeter
G1 X54.674 Y119.300 E0.11203 ; perimeter
G1 X54.425 Y115.394 E0.12272 ; perimeter
G1 X54.253 Y111.520 E0.12156 ; perimeter
G1 X54.146 Y107.393 E0.12945 ; perimeter
G1 X54.106 Y102.895 E0.14104 ; perimeter
G1 X54.141 Y98.287 E0.14449 ; perimeter
G1 X54.250 Y93.598 E0.14705 ; perimeter
G1 X54.433 Y88.859 E0.14869 ; perimeter
G1 X54.690 Y84.100 E0.14944 ; perimeter
G1 X55.020 Y79.350 E0.14928 ; perimeter
G1 X55.422 Y74.640 E0.14823 ; perimeter
G1 X55.897 Y70.000 E0.14625 ; perimeter
G1 X56.301 Y66.587 E0.10776 ; perimeter
G1 X56.745 Y63.243 E0.10578 ; perimeter
G1 X57.229 Y59.976 E0.10353 ; perimeter
G1 X57.755 Y56.799 E0.10098 ; perimeter
G1 X58.320 Y53.719 E0.09817 ; perimeter
G1 X58.928 Y50.745 E0.09520 ; perimeter
G1 X59.577 Y47.885 E0.09194 ; perimeter
G1 X60.268 Y45.153 E0.08835 ; perimeter
G1 X60.866 Y43.018 E0.06952 ; perimeter
G1 X61.478 Y41.025 E0.06539 ; perimeter
G1 X62.099 Y39.176 E0.06115 ; perimeter
G1 X62.762 Y37.380 E0.06002 ; perimeter
G1 X63.450 Y35.688 E0.05728 ; perimeter
G1 X64.163 Y34.102 E0.05452 ; perimeter
G1 X64.903 Y32.624 E0.05182 ; perimeter
G1 X65.668 Y31.258 E0.04908 ; perimeter
G1 X66.365 Y30.147 E0.04112 ; perimeter
G1 X67.045 Y29.174 E0.03724 ; perimeter
G1 X67.758 Y28.262 E0.03629 ; perimeter
G1 X68.488 Y27.435 E0.03458 ; perimeter
G1 X69.235 Y26.692 E0.03303 ; perimeter
G1 X69.999 Y26.032 E0.03166 ; perimeter
G1 X70.780 Y25.454 E0.03047 ; perimeter
G1 X71.576 Y24.960 E0.02939 ; perimeter
G1 X72.379 Y24.549 E0.02827 ; perimeter
G1 X73.199 Y24.213 E0.02779 ; perimeter
G1 X74.062 Y23.946 E0.02831 ; perimeter
G1 X74.918 Y23.763 E0.02745 ; perimeter
G1 X75.822 Y23.650 E0.02857 ; perimeter
G1 X76.714 Y23.613 E0.02799 ; perimeter
G1 X77.676 Y23.647 E0.03018 ; perimeter
G1 X78.669 Y23.755 E0.03132 ; perimeter
G1 X79.817 Y23.963 E0.03657 ; perimeter
G1 X81.005 Y24.267 E0.03847 ; perimeter
G1 X82.195 Y24.652 E0.03920 ; perimeter
G1 X83.498 Y25.156 E0.04380 ; perimeter
G1 X84.801 Y25.741 E0.04478 ; perimeter
G1 X86.140 Y26.419 E0.04708 ; perimeter
G1 X87.516 Y27.190 E0.04946 ; perimeter
G1 X88.923 Y28.052 E0.05170 ; perimeter
G1 X142.665 Y62.315 E1.99840 ; perimeter
M204 S1250 ; adjust acceleration
G1 X142.269 Y62.510 F9000.000 ; move to first perimeter point
M204 S800 ; adjust acceleration
G1 F1800.000
G1 X133.369 Y90.704 E0.92700 ; perimeter
G1 X68.073 Y140.772 E2.57989 ; perimeter
G1 X67.314 Y141.481 E0.03257 ; perimeter
G1 X66.746 Y141.979 E0.02370 ; perimeter
G1 X66.198 Y142.414 E0.02192 ; perimeter
G1 X65.675 Y142.788 E0.02016 ; perimeter
G1 X65.178 Y143.102 E0.01842 ; perimeter
G1 X64.710 Y143.357 E0.01673 ; perimeter
G1 X64.270 Y143.555 E0.01512 ; perimeter
G1 X63.860 Y143.698 E0.01360 ; perimeter
G1 X63.360 Y143.812 E0.01609 ; perimeter
G1 X62.907 Y143.847 E0.01425 ; perimeter
G1 X62.485 Y143.804 E0.01332 ; perimeter
G1 X62.082 Y143.690 E0.01314 ; perimeter
G1 X61.635 Y143.477 E0.01553 ; perimeter
G1 X61.170 Y143.149 E0.01783 ; perimeter
G1 X60.695 Y142.698 E0.02051 ; perimeter
G1 X60.212 Y142.111 E0.02384 ; perimeter
G1 X59.819 Y141.528 E0.02204 ; perimeter
G1 X59.417 Y140.828 E0.02532 ; perimeter
G1 X59.043 Y140.076 E0.02634 ; perimeter
G1 X58.653 Y139.179 E0.03065 ; perimeter
G1 X58.296 Y138.249 E0.03125 ; perimeter
G1 X57.939 Y137.200 E0.03472 ; perimeter
G1 X57.597 Y136.065 E0.03719 ; perimeter
G1 X57.272 Y134.845 E0.03959 ; perimeter
G1 X56.969 Y133.556 E0.04149 ; perimeter
G1 X56.696 Y132.260 E0.04155 ; perimeter
G1 X56.432 Y130.859 E0.04470 ; perimeter
G1 X56.179 Y129.348 E0.04802 ; perimeter
G1 X55.740 Y126.252 E0.09805 ; perimeter
G1 X55.542 Y124.590 E0.05249 ; perimeter
G1 X55.357 Y122.823 E0.05568 ; perimeter
G1 X55.050 Y119.271 E0.11179 ; perimeter
G1 X54.801 Y115.373 E0.12247 ; perimeter
G1 X54.630 Y111.507 E0.12134 ; perimeter
G1 X54.523 Y107.386 E0.12924 ; perimeter
G1 X54.483 Y102.895 E0.14084 ; perimeter
G1 X54.518 Y98.292 E0.14430 ; perimeter
G1 X54.627 Y93.610 E0.14686 ; perimeter
G1 X54.810 Y88.877 E0.14851 ; perimeter
G1 X55.066 Y84.123 E0.14926 ; perimeter
G1 X55.396 Y79.379 E0.14910 ; perimeter
G1 X55.798 Y74.675 E0.14803 ; perimeter
G1 X56.272 Y70.041 E0.14605 ; perimeter
G1 X56.675 Y66.634 E0.10758 ; perimeter
G1 X57.118 Y63.295 E0.10560 ; perimeter
G1 X57.602 Y60.035 E0.10335 ; perimeter
G1 X58.126 Y56.864 E0.10078 ; perimeter
G1 X58.691 Y53.791 E0.09794 ; perimeter
G1 X59.296 Y50.824 E0.09495 ; perimeter
G1 X59.944 Y47.973 E0.09167 ; perimeter
G1 X60.632 Y45.251 E0.08805 ; perimeter
G1 X61.228 Y43.125 E0.06922 ; perimeter
G1 X61.837 Y41.140 E0.06508 ; perimeter
G1 X62.455 Y39.301 E0.06082 ; perimeter
G1 X63.114 Y37.517 E0.05965 ; perimeter
G1 X63.797 Y35.836 E0.05687 ; perimeter
G1 X64.504 Y34.264 E0.05406 ; perimeter
G1 X65.236 Y32.800 E0.05130 ; perimeter
G1 X65.992 Y31.451 E0.04851 ; perimeter
G1 X66.679 Y30.356 E0.04054 ; perimeter
G1 X67.348 Y29.398 E0.03663 ; perimeter
G1 X68.048 Y28.503 E0.03562 ; perimeter
G1 X68.762 Y27.694 E0.03384 ; perimeter
G1 X69.491 Y26.969 E0.03223 ; perimeter
G1 X70.235 Y26.327 E0.03080 ; perimeter
G1 X70.992 Y25.766 E0.02954 ; perimeter
G1 X71.762 Y25.288 E0.02842 ; perimeter
G1 X72.537 Y24.892 E0.02728 ; perimeter
G1 X73.327 Y24.569 E0.02677 ; perimeter
G1 X74.157 Y24.311 E0.02726 ; perimeter
G1 X74.981 Y24.135 E0.02641 ; perimeter
G1 X75.853 Y24.026 E0.02756 ; perimeter
G1 X76.715 Y23.991 E0.02705 ; perimeter
G1 X77.649 Y24.024 E0.02930 ; perimeter
G1 X78.615 Y24.128 E0.03047 ; perimeter
G1 X79.736 Y24.332 E0.03573 ; perimeter
G1 X80.900 Y24.630 E0.03768 ; perimeter
G1 X82.069 Y25.008 E0.03849 ; perimeter
G1 X83.352 Y25.505 E0.04316 ; perimeter
G1 X84.638 Y26.082 E0.04420 ; perimeter
G1 X85.963 Y26.752 E0.04655 ; perimeter
G1 X87.326 Y27.516 E0.04898 ; perimeter
G1 X88.723 Y28.371 E0.05136 ; perimeter
G1 X142.219 Y62.478 E1.98922 ; perimeter
M204 S1250 ; adjust acceleration
G1 X142.639 Y62.663 F9000.000 ; move inwards before travel
G1 E-2.24000 F2400.00000 ; retract
G1 F7200.000
G1 X141.357 Y65.226 E-0.91200 ; wipe and retract
G1 E-0.04800 F2400.00000 ; retract
G1 Z0.400 F9000.000 ; lift Z
G1 X143.220 Y62.164 ; move to first perimeter point
G1 Z0.200 ; restore layer Z
G1 E3.20000 F1500.00000 ; unretract
M204 S800 ; adjust acceleration
G1 F1800.000
G1 X134.058 Y91.187 E0.95426 ; perimeter
G1 X68.514 Y141.445 E2.58971 ; perimeter
G1 X67.858 Y142.073 E0.02846 ; perimeter
G1 X67.276 Y142.586 E0.02433 ; perimeter
G1 X66.678 Y143.065 E0.02401 ; perimeter
G1 X66.131 Y143.457 E0.02113 ; perimeter
G1 X65.583 Y143.802 E0.02029 ; perimeter
G1 X65.058 Y144.084 E0.01870 ; perimeter
G1 X64.568 Y144.301 E0.01678 ; perimeter
G1 X64.082 Y144.468 E0.01612 ; perimeter
G1 X63.631 Y144.576 E0.01454 ; perimeter
G1 X63.197 Y144.632 E0.01372 ; perimeter
G1 X62.782 Y144.637 E0.01302 ; perimeter
G1 X62.382 Y144.594 E0.01260 ; perimeter
G1 X61.994 Y144.503 E0.01250 ; perimeter
G1 X61.613 Y144.363 E0.01272 ; perimeter
G1 X61.237 Y144.171 E0.01325 ; perimeter
G1 X60.865 Y143.926 E0.01397 ; perimeter
G1 X60.485 Y143.616 E0.01537 ; perimeter
G1 X60.123 Y143.259 E0.01594 ; perimeter
G1 X59.752 Y142.828 E0.01782 ; perimeter
G1 X59.399 Y142.353 E0.01856 ; perimeter
G1 X59.042 Y141.802 E0.02060 ; perimeter
G1 X58.693 Y141.187 E0.02216 ; perimeter
G1 X58.363 Y140.533 E0.02297 ; perimeter
G1 X58.033 Y139.801 E0.02518 ; perimeter
G1 X57.715 Y139.011 E0.02668 ; perimeter
G1 X57.400 Y138.142 E0.02901 ; perimeter
G1 X57.112 Y137.261 E0.02903 ; perimeter
G1 X56.836 Y136.326 E0.03058 ; perimeter
G1 X56.558 Y135.294 E0.03352 ; perimeter
G1 X56.050 Y133.111 E0.07029 ; perimeter
G1 X55.591 Y130.730 E0.07603 ; perimeter
G1 X55.377 Y129.446 E0.04080 ; perimeter
G1 X54.994 Y126.789 E0.08419 ; perimeter
G1 X54.661 Y123.965 E0.08915 ; perimeter
G1 X54.377 Y120.984 E0.09387 ; perimeter
G1 X54.137 Y117.799 E0.10015 ; perimeter
G1 X53.952 Y114.538 E0.10240 ; perimeter
G1 X53.814 Y111.160 E0.10602 ; perimeter
G1 X53.724 Y107.612 E0.11129 ; perimeter
G1 X53.683 Y104.038 E0.11205 ; perimeter
G1 X53.690 Y100.391 E0.11436 ; perimeter
G1 X53.746 Y96.614 E0.11845 ; perimeter
G1 X53.846 Y92.932 E0.11547 ; perimeter
G1 X53.997 Y89.081 E0.12085 ; perimeter
G1 X54.197 Y85.215 E0.12138 ; perimeter
G1 X54.445 Y81.352 E0.12139 ; perimeter
G1 X54.729 Y77.646 E0.11652 ; perimeter
G1 X55.072 Y73.832 E0.12007 ; perimeter
G1 X55.447 Y70.204 E0.11436 ; perimeter
G1 X55.883 Y66.500 E0.11694 ; perimeter
G1 X56.366 Y62.873 E0.11473 ; perimeter
G1 X56.878 Y59.467 E0.10798 ; perimeter
G1 X57.457 Y56.027 E0.10939 ; perimeter
G1 X58.086 Y52.702 E0.10611 ; perimeter
G1 X58.735 Y49.635 E0.09827 ; perimeter
G1 X59.459 Y46.577 E0.09856 ; perimeter
G1 X60.217 Y43.733 E0.09227 ; perimeter
G1 X61.003 Y41.108 E0.08591 ; perimeter
G1 X61.873 Y38.534 E0.08519 ; perimeter
G1 X62.772 Y36.197 E0.07850 ; perimeter
G1 X63.719 Y34.041 E0.07386 ; perimeter
G1 X64.195 Y33.065 E0.03405 ; perimeter
G1 X64.709 Y32.084 E0.03471 ; perimeter
G1 X65.235 Y31.155 E0.03349 ; perimeter
G1 X65.746 Y30.318 E0.03073 ; perimeter
G1 X66.269 Y29.529 E0.02969 ; perimeter
G1 X66.828 Y28.752 E0.03002 ; perimeter
G1 X67.385 Y28.044 E0.02824 ; perimeter
G1 X67.953 Y27.386 E0.02726 ; perimeter
G1 X68.517 Y26.791 E0.02570 ; perimeter
G1 X69.106 Y26.232 E0.02546 ; perimeter
G1 X69.720 Y25.710 E0.02529 ; perimeter
G1 X70.316 Y25.259 E0.02342 ; perimeter
G1 X70.921 Y24.855 E0.02281 ; perimeter
G1 X71.552 Y24.488 E0.02290 ; perimeter
G1 X72.195 Y24.168 E0.02251 ; perimeter
G1 X72.850 Y23.894 E0.02228 ; perimeter
G1 X73.518 Y23.665 E0.02214 ; perimeter
G1 X74.181 Y23.487 E0.02153 ; perimeter
G1 X74.875 Y23.347 E0.02221 ; perimeter
G1 X75.586 Y23.252 E0.02247 ; perimeter
G1 X76.292 Y23.202 E0.02222 ; perimeter
G1 X77.053 Y23.195 E0.02384 ; perimeter
G1 X77.791 Y23.231 E0.02316 ; perimeter
G1 X78.558 Y23.311 E0.02418 ; perimeter
G1 X80.148 Y23.603 E0.05070 ; perimeter
G1 X81.833 Y24.077 E0.05488 ; perimeter
G1 X83.552 Y24.716 E0.05751 ; perimeter
G1 X85.336 Y25.527 E0.06144 ; perimeter
G1 X87.238 Y26.538 E0.06755 ; perimeter
G1 X89.165 Y27.701 E0.07054 ; perimeter
G1 X143.170 Y62.132 E2.00816 ; perimeter
M204 S1250 ; adjust acceleration
G1 X143.667 Y62.002 F9000.000 ; move to first perimeter point
M204 S800 ; adjust acceleration
G1 F1800.000
G1 X134.382 Y91.414 E0.96706 ; perimeter
G1 X68.760 Y141.732 E2.59279 ; perimeter
G1 X68.113 Y142.351 E0.02806 ; perimeter
G1 X67.519 Y142.875 E0.02486 ; perimeter
G1 X66.906 Y143.365 E0.02460 ; perimeter
G1 X66.341 Y143.770 E0.02180 ; perimeter
G1 X65.773 Y144.128 E0.02105 ; perimeter
G1 X65.223 Y144.423 E0.01956 ; perimeter
G1 X64.706 Y144.653 E0.01774 ; perimeter
G1 X64.187 Y144.831 E0.01721 ; perimeter
G1 X63.699 Y144.947 E0.01574 ; perimeter
