; generated by PrusaSlicer 2.2.0+ on 2020-11-08 at 11:39:13 UTC


;
;

;
;
; 

; external perimeters extrusion width = 0.45mm
; perimeters extrusion width = 0.45mm
; infill extrusion width = 0.45mm
; solid infill extrusion width = 0.45mm
; top infill extrusion width = 0.40mm
; first layer extrusion width = 0.42mm

M73 P0 R4
M201 X1250 Y1250 Z400 E5000 ; sets maximum accelerations, mm/sec^2
M203 X180 Y180 Z12 E80 ; sets maximum feedrates, mm/sec
M204 P1250 R1250 T1250 ; sets acceleration (P, T) and retract acceleration (R), mm/sec^2
M205 X8.00 Y8.00 Z2.00 E10.00 ; sets the jerk limits, mm/sec
M205 S0 T0 ; sets the minimum extruding and travel feed rate, mm/sec
M107 ; disable fan
G90 ; use absolute coordinates
M83 ; extruder relative mode
M104 S170 ; set extruder temp for bed leveling
M140 S85 ; set bed temp
M109 R170 ; wait for bed leveling temp
M190 S85 ; wait for bed temp
G28 ; home all without mesh bed level
G29 ; mesh bed leveling 
M104 S240 ; set extruder temp
G92 E0.0
G1 Y-2.0 X179 F2400
G1 Z3 F720
M109 S240 ; wait for extruder temp

; intro line
G1 X170 F1000
G1 Z0.2 F720
G1 X110.0 E8.0 F900
M73 P4 R3
G1 X40.0 E10.0 F700
G92 E0.0

M221 S95 ; set flow
G21 ; set units to millimeters
G90 ; use absolute coordinates
M83 ; use relative distances for extrusion
M900 K0.2 ; Filament gcode
;BEFORE_LAYER_CHANGE
G92 E0.0
;0.2


G1 Z0.200 F9000.000 ; move to next layer (0)
;AFTER_LAYER_CHANGE
;0.2
G1 E-3.20000 F2400.00000 ; retract
G1 Z0.400 F9000.000 ; lift Z
G1 X77.415 Y78.048 ; move to first skirt point
G1 Z0.200 ; restore layer Z
G1 E3.20000 F1500.00000 ; unretract
M204 S800 ; adjust acceleration
G1 F1800.000
G1 X77.859 Y77.268 E0.02816 ; skirt
G1 X78.270 Y76.857 E0.01822 ; skirt
G1 X78.758 Y76.542 E0.01822 ; skirt
G1 X79.298 Y76.337 E0.01809 ; skirt
G1 X79.872 Y76.249 E0.01822 ; skirt
G1 X100.004 Y76.246 E0.63122 ; skirt
G1 X101.005 Y76.436 E0.03195 ; skirt
G1 X101.869 Y76.977 E0.03195 ; skirt
G1 X102.477 Y77.795 E0.03195 ; skirt
G1 X102.745 Y78.778 E0.03195 ; skirt
G1 X102.753 Y101.070 E0.69894 ; skirt
G1 X102.585 Y101.952 E0.02816 ; skirt
G1 X102.141 Y102.732 E0.02816 ; skirt
G1 X101.717 Y103.153 E0.01873 ; skirt
G1 X101.209 Y103.475 E0.01886 ; skirt
G1 X100.643 Y103.678 E0.01886 ; skirt
G1 X100.046 Y103.754 E0.01886 ; skirt
G1 X79.922 Y103.753 E0.63096 ; skirt
G1 X79.044 Y103.583 E0.02803 ; skirt
G1 X78.268 Y103.141 E0.02803 ; skirt
G1 X77.844 Y102.714 E0.01886 ; skirt
G1 X77.523 Y102.205 E0.01886 ; skirt
G1 X77.321 Y101.639 E0.01886 ; skirt
G1 X77.246 Y101.042 E0.01886 ; skirt
G1 X77.247 Y78.930 E0.69329 ; skirt
G1 X77.404 Y78.107 E0.02627 ; skirt
M204 S1250 ; adjust acceleration
G1 X77.770 Y78.177 F9000.000 ; move to first skirt point
M204 S800 ; adjust acceleration
G1 F1800.000
G1 X78.163 Y77.492 E0.02477 ; skirt
G1 X78.517 Y77.142 E0.01562 ; skirt
G1 X78.941 Y76.872 E0.01574 ; skirt
G1 X79.407 Y76.698 E0.01562 ; skirt
G1 X79.904 Y76.625 E0.01574 ; skirt
G1 X100.004 Y76.623 E0.63022 ; skirt
G1 X100.874 Y76.789 E0.02778 ; skirt
G1 X101.623 Y77.263 E0.02778 ; skirt
G1 X102.145 Y77.975 E0.02767 ; skirt
G1 X102.371 Y78.831 E0.02778 ; skirt
G1 X102.376 Y101.053 E0.69675 ; skirt
G1 X102.230 Y101.824 E0.02461 ; skirt
G1 X101.837 Y102.508 E0.02473 ; skirt
G1 X101.468 Y102.870 E0.01621 ; skirt
G1 X101.032 Y103.141 E0.01609 ; skirt
G1 X100.545 Y103.314 E0.01621 ; skirt
G1 X100.032 Y103.377 E0.01621 ; skirt
G1 X79.939 Y103.376 E0.62999 ; skirt
G1 X79.172 Y103.228 E0.02449 ; skirt
G1 X78.492 Y102.837 E0.02461 ; skirt
G1 X78.130 Y102.468 E0.01621 ; skirt
G1 X77.859 Y102.032 E0.01609 ; skirt
G1 X77.686 Y101.545 E0.01621 ; skirt
G1 X77.623 Y101.032 E0.01621 ; skirt
G1 X77.624 Y78.947 E0.69246 ; skirt
G1 X77.759 Y78.236 E0.02269 ; skirt
M204 S1250 ; adjust acceleration
G1 E-2.24000 F2400.00000 ; retract
G1 F7200.000
G1 X78.163 Y77.492 E-0.26816 ; wipe and retract
G1 X78.517 Y77.142 E-0.15772 ; wipe and retract
G1 X78.941 Y76.872 E-0.15892 ; wipe and retract
G1 X79.407 Y76.698 E-0.15772 ; wipe and retract
G1 X79.904 Y76.625 E-0.15892 ; wipe and retract
G1 X79.937 Y76.625 E-0.01056 ; wipe and retract
G1 E-0.04800 F2400.00000 ; retract
G1 Z0.400 F9000.000 ; lift Z
G1 X82.117 Y82.178 ; move to first perimeter point
G1 Z0.200 ; restore layer Z
G1 E3.20000 F1500.00000 ; unretract
M204 S800 ; adjust acceleration
G1 F1800.000
G1 X97.831 Y82.178 E0.49271 ; perimeter
G1 X97.831 Y97.892 E0.49271 ; perimeter
G1 X82.117 Y97.892 E0.49271 ; perimeter
G1 X82.117 Y82.238 E0.49083 ; perimeter
M204 S1250 ; adjust acceleration
G1 X82.494 Y82.555 F9000.000 ; move to first perimeter point
M204 S800 ; adjust acceleration
G1 F1800.000
G1 X97.454 Y82.555 E0.46906 ; perimeter
G1 X97.454 Y97.515 E0.46906 ; perimeter
G1 X82.494 Y97.515 E0.46906 ; perimeter
G1 X82.494 Y82.615 E0.46718 ; perimeter
M204 S1250 ; adjust acceleration
G1 X82.391 Y82.168 F9000.000 ; move inwards before travel
G1 E-2.24000 F2400.00000 ; retract
G1 F7200.000
G1 X85.374 Y82.603 E-0.91200 ; wipe and retract
G1 E-0.04800 F2400.00000 ; retract
G1 Z0.400 F9000.000 ; lift Z
G1 X80.787 Y79.787 ; move to first perimeter point
G1 Z0.200 ; restore layer Z
G1 E3.20000 F1500.00000 ; unretract
M204 S800 ; adjust acceleration
G1 F1800.000
G1 X99.213 Y79.787 E0.57773 ; perimeter
G1 X99.213 Y100.213 E0.64044 ; perimeter
G1 X80.787 Y100.213 E0.57773 ; perimeter
G1 X80.787 Y79.847 E0.63856 ; perimeter
M204 S1250 ; adjust acceleration
G1 X80.410 Y79.410 F9000.000 ; move to first perimeter point
M204 S800 ; adjust acceleration
G1 F1800.000
G1 X99.590 Y79.410 E0.60138 ; perimeter
G1 X99.590 Y100.590 E0.66408 ; perimeter
G1 X80.410 Y100.590 E0.60138 ; perimeter
G1 X80.410 Y79.470 E0.66220 ; perimeter
M204 S1250 ; adjust acceleration
G1 X80.795 Y79.520 F9000.000 ; move inwards before travel
G1 E-2.24000 F2400.00000 ; retract
G1 F7200.000
G1 X83.290 Y79.461 E-0.91200 ; wipe and retract
G1 E-0.04800 F2400.00000 ; retract
G1 Z0.400 F9000.000 ; lift Z
G1 X99.100 Y80.664 ; move to first infill point
G1 Z0.200 ; restore layer Z
G1 E3.20000 F1500.00000 ; unretract
M204 S800 ; adjust acceleration
G1 F1800.000
G1 X98.506 Y80.070 E0.02640 ; infill
G1 X97.971 Y80.070 E0.01679 ; infill
G1 X98.930 Y81.029 E0.04261 ; infill
G1 X98.930 Y81.563 E0.01679 ; infill
G1 X97.437 Y80.070 E0.06635 ; infill
G1 X96.902 Y80.070 E0.01679 ; infill
G1 X98.930 Y82.098 E0.09009 ; infill
G1 X98.930 Y82.632 E0.01679 ; infill
G1 X96.368 Y80.070 E0.11384 ; infill
G1 X95.834 Y80.070 E0.01679 ; infill
G1 X97.659 Y81.895 E0.08109 ; infill
G1 X97.124 Y81.895 E0.01679 ; infill
G1 X95.299 Y80.070 E0.08109 ; infill
G1 X94.765 Y80.070 E0.01679 ; infill
G1 X96.590 Y81.895 E0.08109 ; infill
G1 X96.056 Y81.895 E0.01679 ; infill
G1 X94.231 Y80.070 E0.08109 ; infill
G1 X93.696 Y80.070 E0.01679 ; infill
G1 X95.521 Y81.895 E0.08109 ; infill
G1 X94.987 Y81.895 E0.01679 ; infill
G1 X93.162 Y80.070 E0.08109 ; infill
G1 X92.628 Y80.070 E0.01679 ; infill
G1 X94.452 Y81.895 E0.08109 ; infill
G1 X93.918 Y81.895 E0.01679 ; infill
G1 X92.093 Y80.070 E0.08109 ; infill
G1 X91.559 Y80.070 E0.01679 ; infill
G1 X93.384 Y81.895 E0.08109 ; infill
G1 X92.849 Y81.895 E0.01679 ; infill
G1 X91.024 Y80.070 E0.08109 ; infill
G1 X90.490 Y80.070 E0.01679 ; infill
G1 X92.315 Y81.895 E0.08109 ; infill
G1 X91.781 Y81.895 E0.01679 ; infill
G1 X89.956 Y80.070 E0.08109 ; infill
G1 X89.421 Y80.070 E0.01679 ; infill
G1 X91.246 Y81.895 E0.08109 ; infill
G1 X90.712 Y81.895 E0.01679 ; infill
G1 X88.887 Y80.070 E0.08109 ; infill
G1 X88.353 Y80.070 E0.01679 ; infill
G1 X90.177 Y81.895 E0.08109 ; infill
G1 X89.643 Y81.895 E0.01679 ; infill
G1 X87.818 Y80.070 E0.08109 ; infill
G1 X87.284 Y80.070 E0.01679 ; infill
G1 X89.109 Y81.895 E0.08109 ; infill
G1 X88.574 Y81.895 E0.01679 ; infill
G1 X86.749 Y80.070 E0.08109 ; infill
G1 X86.215 Y80.070 E0.01679 ; infill
G1 X88.040 Y81.895 E0.08109 ; infill
G1 X87.506 Y81.895 E0.01679 ; infill
G1 X85.681 Y80.070 E0.08109 ; infill
G1 X85.146 Y80.070 E0.01679 ; infill
G1 X86.971 Y81.895 E0.08109 ; infill
G1 X86.437 Y81.895 E0.01679 ; infill
G1 X84.612 Y80.070 E0.08109 ; infill
G1 X84.078 Y80.070 E0.01679 ; infill
G1 X85.903 Y81.895 E0.08109 ; infill
G1 X85.368 Y81.895 E0.01679 ; infill
G1 X83.543 Y80.070 E0.08109 ; infill
G1 X83.009 Y80.070 E0.01679 ; infill
G1 X84.834 Y81.895 E0.08109 ; infill
G1 X84.299 Y81.895 E0.01679 ; infill
G1 X82.475 Y80.070 E0.08109 ; infill
G1 X81.940 Y80.070 E0.01679 ; infill
G1 X83.765 Y81.895 E0.08109 ; infill
G1 X83.231 Y81.895 E0.01679 ; infill
G1 X81.406 Y80.070 E0.08109 ; infill
G1 X81.070 Y80.070 E0.01055 ; infill
G1 X81.070 Y80.268 E0.00624 ; infill
G1 X82.696 Y81.895 E0.07227 ; infill
G1 X82.162 Y81.895 E0.01679 ; infill
G1 X81.070 Y80.803 E0.04852 ; infill
G1 X81.070 Y81.337 E0.01679 ; infill
G1 X81.834 Y82.102 E0.03397 ; infill
G1 X81.834 Y82.636 E0.01679 ; infill
G1 X81.070 Y81.871 E0.03397 ; infill
G1 X81.070 Y82.406 E0.01679 ; infill
G1 X81.834 Y83.170 E0.03397 ; infill
G1 X81.834 Y83.705 E0.01679 ; infill
G1 X81.070 Y82.940 E0.03397 ; infill
G1 X81.070 Y83.475 E0.01679 ; infill
G1 X81.834 Y84.239 E0.03397 ; infill
G1 X81.834 Y84.774 E0.01679 ; infill
G1 X81.070 Y84.009 E0.03397 ; infill
G1 X81.070 Y84.543 E0.01679 ; infill
G1 X81.834 Y85.308 E0.03397 ; infill
G1 X81.834 Y85.842 E0.01679 ; infill
G1 X81.070 Y85.078 E0.03397 ; infill
G1 X81.070 Y85.612 E0.01679 ; infill
G1 X81.834 Y86.377 E0.03397 ; infill
G1 X81.834 Y86.911 E0.01679 ; infill
G1 X81.070 Y86.146 E0.03397 ; infill
G1 X81.070 Y86.681 E0.01679 ; infill
G1 X81.834 Y87.445 E0.03397 ; infill
G1 X81.834 Y87.980 E0.01679 ; infill
G1 X81.070 Y87.215 E0.03397 ; infill
G1 X81.070 Y87.750 E0.01679 ; infill
G1 X81.834 Y88.514 E0.03397 ; infill
G1 X81.834 Y89.048 E0.01679 ; infill
G1 X81.070 Y88.284 E0.03397 ; infill
G1 X81.070 Y88.818 E0.01679 ; infill
G1 X81.834 Y89.583 E0.03397 ; infill
G1 X81.834 Y90.117 E0.01679 ; infill
G1 X81.070 Y89.353 E0.03397 ; infill
G1 X81.070 Y89.887 E0.01679 ; infill
G1 X81.834 Y90.652 E0.03397 ; infill
G1 X81.834 Y91.186 E0.01679 ; infill
G1 X81.070 Y90.421 E0.03397 ; infill
G1 X81.070 Y90.956 E0.01679 ; infill
G1 X81.834 Y91.720 E0.03397 ; infill
G1 X81.834 Y92.255 E0.01679 ; infill
G1 X81.070 Y91.490 E0.03397 ; infill
G1 X81.070 Y92.024 E0.01679 ; infill
G1 X81.834 Y92.789 E0.03397 ; infill
G1 X81.834 Y93.323 E0.01679 ; infill
G1 X81.070 Y92.559 E0.03397 ; infill
G1 X81.070 Y93.093 E0.01679 ; infill
G1 X81.834 Y93.858 E0.03397 ; infill
G1 X81.834 Y94.392 E0.01679 ; infill
G1 X81.070 Y93.628 E0.03397 ; infill
G1 X81.070 Y94.162 E0.01679 ; infill
G1 X81.834 Y94.927 E0.03397 ; infill
G1 X81.834 Y95.461 E0.01679 ; infill
G1 X81.070 Y94.696 E0.03397 ; infill
G1 X81.070 Y95.231 E0.01679 ; infill
G1 X81.834 Y95.995 E0.03397 ; infill
G1 X81.834 Y96.530 E0.01679 ; infill
G1 X81.070 Y95.765 E0.03397 ; infill
G1 X81.070 Y96.299 E0.01679 ; infill
G1 X81.834 Y97.064 E0.03397 ; infill
G1 X81.834 Y97.598 E0.01679 ; infill
G1 X81.070 Y96.834 E0.03397 ; infill
G1 X81.070 Y97.368 E0.01679 ; infill
G1 X83.632 Y99.930 E0.11384 ; infill
G1 X84.166 Y99.930 E0.01679 ; infill
G1 X82.411 Y98.175 E0.07801 ; infill
G1 X82.945 Y98.175 E0.01679 ; infill
G1 X84.701 Y99.930 E0.07801 ; infill
G1 X85.235 Y99.930 E0.01679 ; infill
G1 X83.479 Y98.175 E0.07801 ; infill
G1 X84.014 Y98.175 E0.01679 ; infill
G1 X85.769 Y99.930 E0.07801 ; infill
G1 X86.304 Y99.930 E0.01679 ; infill
G1 X84.548 Y98.175 E0.07801 ; infill
G1 X85.082 Y98.175 E0.01679 ; infill
G1 X86.838 Y99.930 E0.07801 ; infill
G1 X87.372 Y99.930 E0.01679 ; infill
G1 X85.617 Y98.175 E0.07801 ; infill
G1 X86.151 Y98.175 E0.01679 ; infill
G1 X87.907 Y99.930 E0.07801 ; infill
G1 X88.441 Y99.930 E0.01679 ; infill
G1 X86.686 Y98.175 E0.07801 ; infill
G1 X87.220 Y98.175 E0.01679 ; infill
G1 X88.976 Y99.930 E0.07801 ; infill
G1 X89.510 Y99.930 E0.01679 ; infill
G1 X87.754 Y98.175 E0.07801 ; infill
G1 X88.289 Y98.175 E0.01679 ; infill
G1 X90.044 Y99.930 E0.07801 ; infill
G1 X90.579 Y99.930 E0.01679 ; infill
G1 X88.823 Y98.175 E0.07801 ; infill
G1 X89.357 Y98.175 E0.01679 ; infill
G1 X91.113 Y99.930 E0.07801 ; infill
G1 X91.647 Y99.930 E0.01679 ; infill
G1 X89.892 Y98.175 E0.07801 ; infill
G1 X90.426 Y98.175 E0.01679 ; infill
G1 X92.182 Y99.930 E0.07801 ; infill
G1 X92.716 Y99.930 E0.01679 ; infill
G1 X90.961 Y98.175 E0.07801 ; infill
G1 X91.495 Y98.175 E0.01679 ; infill
G1 X93.250 Y99.930 E0.07801 ; infill
G1 X93.785 Y99.930 E0.01679 ; infill
G1 X92.029 Y98.175 E0.07801 ; infill
G1 X92.564 Y98.175 E0.01679 ; infill
G1 X94.319 Y99.930 E0.07801 ; infill
G1 X94.854 Y99.930 E0.01679 ; infill
G1 X93.098 Y98.175 E0.07801 ; infill
G1 X93.632 Y98.175 E0.01679 ; infill
G1 X95.388 Y99.930 E0.07801 ; infill
G1 X95.922 Y99.930 E0.01679 ; infill
G1 X94.167 Y98.175 E0.07801 ; infill
G1 X94.701 Y98.175 E0.01679 ; infill
G1 X96.457 Y99.930 E0.07801 ; infill
G1 X96.991 Y99.930 E0.01679 ; infill
G1 X95.235 Y98.175 E0.07801 ; infill
G1 X95.770 Y98.175 E0.01679 ; infill
G1 X97.525 Y99.930 E0.07801 ; infill
G1 X98.060 Y99.930 E0.01679 ; infill
G1 X96.304 Y98.175 E0.07801 ; infill
G1 X96.839 Y98.175 E0.01679 ; infill
G1 X98.594 Y99.930 E0.07801 ; infill
G1 X98.930 Y99.930 E0.01056 ; infill
G1 X98.930 Y99.732 E0.00623 ; infill
G1 X97.373 Y98.175 E0.06919 ; infill
G1 X97.907 Y98.175 E0.01679 ; infill
G1 X98.930 Y99.197 E0.04545 ; infill
G1 X98.930 Y98.663 E0.01679 ; infill
G1 X98.114 Y97.847 E0.03625 ; infill
G1 X98.114 Y97.313 E0.01679 ; infill
G1 X98.930 Y98.129 E0.03625 ; infill
G1 X98.930 Y97.594 E0.01679 ; infill
G1 X98.114 Y96.778 E0.03625 ; infill
G1 X98.114 Y96.244 E0.01679 ; infill
G1 X98.930 Y97.060 E0.03625 ; infill
G1 X98.930 Y96.525 E0.01679 ; infill
G1 X98.114 Y95.710 E0.03625 ; infill
G1 X98.114 Y95.175 E0.01679 ; infill
G1 X98.930 Y95.991 E0.03625 ; infill
G1 X98.930 Y95.457 E0.01679 ; infill
G1 X98.114 Y94.641 E0.03625 ; infill
G1 X98.114 Y94.106 E0.01679 ; infill
G1 X98.930 Y94.922 E0.03625 ; infill
G1 X98.930 Y94.388 E0.01679 ; infill
G1 X98.114 Y93.572 E0.03625 ; infill
G1 X98.114 Y93.038 E0.01679 ; infill
G1 X98.930 Y93.854 E0.03625 ; infill
G1 X98.930 Y93.319 E0.01679 ; infill
G1 X98.114 Y92.503 E0.03625 ; infill
G1 X98.114 Y91.969 E0.01679 ; infill
G1 X98.930 Y92.785 E0.03625 ; infill
G1 X98.930 Y92.251 E0.01679 ; infill
G1 X98.114 Y91.435 E0.03625 ; infill
G1 X98.114 Y90.900 E0.01679 ; infill
G1 X98.930 Y91.716 E0.03625 ; infill
G1 X98.930 Y91.182 E0.01679 ; infill
G1 X98.114 Y90.366 E0.03625 ; infill
G1 X98.114 Y89.832 E0.01679 ; infill
G1 X98.930 Y90.647 E0.03625 ; infill
G1 X98.930 Y90.113 E0.01679 ; infill
G1 X98.114 Y89.297 E0.03625 ; infill
G1 X98.114 Y88.763 E0.01679 ; infill
G1 X98.930 Y89.579 E0.03625 ; infill
G1 X98.930 Y89.044 E0.01679 ; infill
G1 X98.114 Y88.228 E0.03625 ; infill
G1 X98.114 Y87.694 E0.01679 ; infill
G1 X98.930 Y88.510 E0.03625 ; infill
G1 X98.930 Y87.976 E0.01679 ; infill
G1 X98.114 Y87.160 E0.03625 ; infill
G1 X98.114 Y86.625 E0.01679 ; infill
G1 X98.930 Y87.441 E0.03625 ; infill
G1 X98.930 Y86.907 E0.01679 ; infill
G1 X98.114 Y86.091 E0.03625 ; infill
G1 X98.114 Y85.557 E0.01679 ; infill
G1 X98.930 Y86.372 E0.03625 ; infill
G1 X98.930 Y85.838 E0.01679 ; infill
G1 X98.114 Y85.022 E0.03625 ; infill
G1 X98.114 Y84.488 E0.01679 ; infill
G1 X98.930 Y85.304 E0.03625 ; infill
G1 X98.930 Y84.769 E0.01679 ; infill
G1 X98.114 Y83.953 E0.03625 ; infill
G1 X98.114 Y83.419 E0.01679 ; infill
G1 X98.930 Y84.235 E0.03625 ; infill
G1 X98.930 Y83.701 E0.01679 ; infill
G1 X98.114 Y82.885 E0.03625 ; infill
G1 X98.114 Y82.350 E0.01679 ; infill
G1 X99.100 Y83.336 E0.04379 ; infill
M204 S1250 ; adjust acceleration
G1 E-2.24000 F2400.00000 ; retract
G1 F7200.000
G1 X98.114 Y82.350 E-0.44138 ; wipe and retract
G1 X98.114 Y82.885 E-0.16922 ; wipe and retract
G1 X98.787 Y83.558 E-0.30141 ; wipe and retract
G1 E-0.04800 F2400.00000 ; retract
G1 Z0.400 F9000.000 ; lift Z
G1 X83.267 Y100.100 ; move to first infill point
G1 Z0.200 ; restore layer Z
G1 E3.20000 F1500.00000 ; unretract
M204 S800 ; adjust acceleration
G1 F1800.000
G1 X81.070 Y97.903 E0.09763 ; infill
G1 X81.070 Y98.437 E0.01679 ; infill
G1 X82.563 Y99.930 E0.06635 ; infill
G1 X82.029 Y99.930 E0.01679 ; infill
